dist/img/svg/ic_input-valid.svg

<svg width="22" height="22" viewBox="0 0 22 22" fill="none" xmlns="http://www.w3.org/2000/svg">
<path d="M15.4205 7.82693C15.7256 8.13211 15.7256 8.6268 15.4205 8.93182L10.1794 14.1731C9.87421 14.4781 9.37967 14.4781 9.07449 14.1731L6.57953 11.6779C6.27435 11.3729 6.27435 10.8782 6.57953 10.5732C6.88455 10.268 7.37924 10.268 7.68427 10.5732L9.62686 12.5158L14.3156 7.82693C14.6208 7.52191 15.1154 7.52191 15.4205 7.82693ZM21 11C21 16.5275 16.5267 21 11 21C5.4725 21 1 16.5267 1 11C1 5.4725 5.47327 1 11 1C16.5275 1 21 5.47327 21 11ZM19.4375 11C19.4375 6.33615 15.6632 2.5625 11 2.5625C6.33615 2.5625 2.5625 6.33676 2.5625 11C2.5625 15.6638 6.33676 19.4375 11 19.4375C15.6638 19.4375 19.4375 15.6632 19.4375 11Z" fill="#319A00"/>
</svg>

<svg width="22" height="22" viewBox="0 0 22 22" fill="none" xmlns="http://www.w3.org/2000/svg"><path d="M15.42 7.827a.78.78 0 010 1.105l-5.24 5.241a.781.781 0 01-1.106 0L6.58 11.678a.78.78 0 111.104-1.105l1.943 1.943 4.689-4.69a.781.781 0 011.104 0zM21 11c0 5.527-4.473 10-10 10S1 16.527 1 11 5.473 1 11 1s10 4.473 10 10zm-1.563 0A8.433 8.433 0 0011 2.562 8.433 8.433 0 002.562 11 8.433 8.433 0 0011 19.438 8.433 8.433 0 0019.438 11z" fill="#319A00"/></svg>
